X:1
T:Ich Armer Mensch, LM
T:Ich Armer Mensch, LM
T:Johann Sebastian Bach, 1723
T:Public Domain Courtesy of the Cyber Hymnal™
C:Johann Sebastian Bach, 1723
Z:Public Domain
Z:Courtesy of the Cyber Hymnal™
%%score ( 1 2 ) ( 3 4 )
L:1/8
Q:1/4=112
M:none
K:C
V:1 treble 
V:2 treble 
V:3 bass 
V:4 bass 
V:1
 z2 [EG]2 [Ec]2 G2 | [FA]2 [FA]2 G3 z F | [CE]2 C2 z2 [B,D]2 | [CE]2 [C^F]2 [DG]2 [EA]2 | %4
 B2 z [B,G]4 z2 [Gd]2 [^Fd]2 [Ec]2 x | [DB]2 [Ec]2 [Dc]2 B2 | [Ec]4 z2 [Fc]2 | %7
 [Fd]2 [Gc]2 [GB]2 [Gc]2 | [Dc]2 B2 [Ec]4 |] %9
V:2
 x6 G2 | x4 E2 D2 x | x2 C2 x4 | x8 | D3 A2 C x10 | x6 (EF) | x8 | x8 | x2 (EF) x4 |] %9
V:3
 z2 [C,G,]2 [C,G,]2 [E,C]2 | [F,C]2 [F,C]2 [G,C]2 [G,,B,]2 x | [C,G,]2 [C,E,]2 z2 [G,,G,]2 | %3
 [C,G,]2 [A,,A,]2 [B,,G,]2 [C,G,]2 | [D,G,]2 [D,F,]2 [G,,G,]4 z2 [G,B,]2 [D,A,]2 ([E,G,][^F,A,]) | %5
 [G,B,]2 [C,G,]2 [F,A,]2 G,2 | [C,G,]4 z2 [F,A,]2 | [D,B,]2 [E,C]2 [F,D]2 [E,C]2 | %8
 [F,A,]2 G,2 [C,G,]4 |] %9
V:4
 x8 | x9 | x8 | x8 | x16 | x6 G,2 | x8 | x8 | x2 G,2 x4 |] %9

